X: 30531
T: On One Beautiful Day
R: slip jig
M: 9/8
K: Gmajor
"G"g3- g3 d2B|"D"A3 G2F "G/D"G2D|
"C"E2G cBG "D"GAD|Bd"C/E"g- gga "D"f2d|
d2z "G"gaf gab|"D"a3 g2f "G/D"g2z|
"C"gec "Dsus4"d2B- B2A|1 "C/E"G3 G2A "D"F2G:|2 "C/E"G3- G2A "D"F3||
Bdg "Em"gfd "D"AGF|"Em"E3 efg f2d|
"G"B3 BAG "G/B"Bcd|g3 "C"c2B A2G|
"D"A3- A2B BAG|"Em"E2B zcB "D"AGd|
fgd- dga fdg|"Em"e3 efg f2d|
"G"B3 BAG Bcd|"G/B"d3 "C"c2B A2G|
"D"A3- A2B BAG|"Em"E2B zcB "D"AGd|
fgd- dga fga|"G"b3 bag "G/B"fge|
"C"dBG GAB "D"AGF|"G"G3- G3 z3||

